dist/svg/object-close-o.svg

<!-- Generated by Trend Micro Style Portal -->
<svg version="1.1" xmlns="http://www.w3.org/2000/svg" width="16" height="16" viewBox="0 0 16 16">
  <title>object-close-o</title>
  <path fill="rgb(34,34,34)" d="M3 15h4v1h-4c-0.552 0-1-0.448-1-1v0-14c0-0.552 0.448-1 1-1v0h10c0.552 0 1 0.448 1 1v0 6h-1v-6h-10zM5 3h6v4h1v-5h-8v12h3v-1h-2zM13 12l3-3-1-1-3 3-3-3-1 1 3 3-3 3 1 1 3-3 3 3 1-1-2.61-2.61z"></path>
</svg>

<svg width="16" height="16" viewBox="0 0 16 16" fill="rgb(34, 34, 34)" xmlns="http://www.w3.org/2000/svg"><title>object-close-o</title><path d="M3 15H7V16H3C2.448 16 2 15.552 2 15V1C2 0.448 2.448 0 3 0H13C13.552 0 14 0.448 14 1V7H13V1H3V15ZM5 3H11V7H12V2H4V14H7V13H5V3ZM13 12L16 9L15 8L12 11L9 8L8 9L11 12L8 15L9 16L12 13L15 16L16 15L13.39 12.39L13 12Z" fill="rgb(34, 34, 34)" fill-opacity="1.00"/></svg>
